src/img/chevron-right.svg

<svg fill="none" height="24" viewBox="0 0 24 24" width="24" xmlns="http://www.w3.org/2000/svg" xmlns:xlink="http://www.w3.org/1999/xlink"><mask id="a" height="14" maskUnits="userSpaceOnUse" width="8" x="8" y="5"><path d="m15.7 12.7-6 6c-.2.2-.4.3-.7.3s-.5-.1-.7-.3c-.4-.4-.4-1 0-1.4l5.3-5.3-5.3-5.3c-.4-.4-.4-1 0-1.4s1-.4 1.4 0l6 6c.4.4.4 1 0 1.4z" fill="#fff"/></mask><path d="m15.7 12.7-6 6c-.2.2-.4.3-.7.3s-.5-.1-.7-.3c-.4-.4-.4-1 0-1.4l5.3-5.3-5.3-5.3c-.4-.4-.4-1 0-1.4s1-.4 1.4 0l6 6c.4.4.4 1 0 1.4z" fill="#333"/><g mask="url(#a)"><path d="m0 0h24v24h-24z" fill="#333"/></g></svg>

<svg width="24" height="24" viewBox="0 0 24 24" fill="none" 
  xmlns="http://www.w3.org/2000/svg">
  <path d="M15.7 12.7L9.7 18.7C9.5 18.9 9.3 19 9 19C8.7 19 8.5 18.9 8.3 18.7C7.9 18.3 7.9 17.7 8.3 17.3L13.6 12L8.3 6.7C7.9 6.3 7.9 5.7 8.3 5.3C8.7 4.9 9.3 4.9 9.7 5.3L15.7 11.3C16.1 11.7 16.1 12.3 15.7 12.7Z" fill="#333333"/>
  <mask id="mask0" mask-type="alpha" maskUnits="userSpaceOnUse" x="8" y="5" width="8" height="14">
    <path d="M15.7 12.7L9.7 18.7C9.5 18.9 9.3 19 9 19C8.7 19 8.5 18.9 8.3 18.7C7.9 18.3 7.9 17.7 8.3 17.3L13.6 12L8.3 6.7C7.9 6.3 7.9 5.7 8.3 5.3C8.7 4.9 9.3 4.9 9.7 5.3L15.7 11.3C16.1 11.7 16.1 12.3 15.7 12.7Z" fill="white"/>
  </mask>
  <g mask="url(#mask0)">
    <rect width="24" height="24" fill="#333333"/>
  </g>
</svg>
